X:1
T:Ellan Vannin, 87.87 D
T:Ellan Vannin, 87.87 D
T:J. Townsend, 1898, arr. M. L. Wood
T:Public Domain Courtesy of the Cyber Hymnal™
C:J. Townsend, 1898, arr. M. L. Wood
Z:Public Domain
Z:Courtesy of the Cyber Hymnal™
%%score ( 1 2 ) ( 3 4 )
L:1/8
Q:1/4=145
M:3/2
K:Bb
V:1 treble 
V:2 treble 
V:3 bass 
V:4 bass 
V:1
 [DF]2 [DB]2 | [Dd]6 [Ec]2 [FB]2 [FA]2 | [EG]2 [EB]6 [EA]2 [EG]2 | F2 [FB]2 [Fd]4 [Ge]4 | %4
 (d4 !fermata!c4) [Ff]2 [Fe]2 | [Fd]6 [Ec]2 [DB]2 [FA]2 | [EG]2 [EB]6 [^CA]2 [CG]2 | %7
 [DF]2 [DB]2 [Fd]4 [EFc]4 | [DFB]6 z2 [FA]3 [=EB] | [Ec]4 [EB]2 [EA]2 ([EG]2 [EF]2) | %10
 [Fd]2 [DFB]6 z4 | [Ee]2 [Fd]2 [Gc]2 [GB]2 [FA]2 [=EB]2 | [Fc]8 [FB]2 [Fc]2 | %13
 [Fd]6 [Ec]2 [DB]2 [^FA]2 | [EG]2 [EB]6 [^CA]2 [CG]2 | [DF]2 [DFB]2 [DFd]4 [EF=c]4 | [DFB]8 |] %17
V:2
 x4 | x12 | x12 | F2 x10 | F8 x4 | x12 | x12 | x12 | x12 | x12 | x12 | x12 | x12 | x12 | x12 | %15
 x12 | x8 |] %17
V:3
 [B,,B,]2 [B,,F,]2 | [B,,B,]6 [C,A,]2 [D,B,]2 [D,B,]2 | [E,B,]2 [G,B,]6 [F,B,]2 [E,B,]2 | %3
 [D,B,]2 [D,B,]2 [B,,B,]4 [E,B,]4 | (B,4 !fermata!A,4) [A,C]2 [A,C]2 | %5
 B,6 [F,A,]2 [G,B,]2 [D,B,]2 | [E,B,]2 [E,G,]6 [=E,G,]2 [E,G,]2 | %7
 [F,B,]2 [F,B,]2 [F,,F,B,]4 [F,,F,A,]4 | [B,,B,]6 z2 [F,C]3 [G,C] | %9
 [A,C]4 [G,C]2 [F,C]2 ([G,B,]2 [A,C]2) | B,2 [B,,B,]6 z4 | %11
 [C,C]2 [D,=B,]2 [E,G,]2 [=E,C]2 [F,C]2 [G,B,]2 | A,8 [D,B,]2 [C,A,]2 | %13
 B,6 [^F,A,]2 [G,B,]2 [D,C]2 | [E,B,]2 [E,G,]6 [=E,G,]2 [E,B,]2 | [F,B,]2 [F,B,]2 [F,B,]4 [F,A,]4 | %16
 [B,,B,]8 |] %17
V:4
 x4 | x12 | x12 | x12 | F,8 x4 | (B,2 B,,2 D,2) x6 | x12 | x12 | x12 | x12 | B,2 x10 | x12 | %12
 (F,6 E,2) x4 | (B,,2 D,2 ^F,2) x6 | x12 | x12 | x8 |] %17

